X: 3610
T:Musical Priest, The
R:double jig
M:6/8
L:1/8
K:G
G2|E2A A2G|A3 A2c|B2A G2B|e2d B2G|!
E2A A2G|A3 A2c|B2A G2B|A4:|!
B2|c4B2|c2e d2c|B2G B2d|g2d B2G|!
c2B A2B|c2d e2a|g2e d2B|A4:|!
B2|c3 A (3AAA|a2g e2g|g2e d2B|G2A B2G|!
c3 A (3AAA|a2g e2g|g2e d2B|A4:|!
